packages/foundations/assets/icons/functional/images/business & payment/shopping_bag_20.svg

<svg width="20" height="20" viewBox="0 0 20 20" fill="none" xmlns="http://www.w3.org/2000/svg">
<g clip-path="url(#clip0_184_102)">
<path fill-rule="evenodd" clip-rule="evenodd" d="M10.0003 2C12.2503 2 13.9703 3.625 14.0003 6H15.4073C15.6624 5.9983 15.9085 6.0947 16.0946 6.26927C16.2807 6.44384 16.3927 6.68325 16.4073 6.938L17.0003 16.938C17.0057 17.0737 16.9841 17.2092 16.9366 17.3365C16.889 17.4637 16.8166 17.5802 16.7234 17.6791C16.6303 17.778 16.5184 17.8574 16.3942 17.9125C16.27 17.9676 16.1361 17.9973 16.0003 18H4.00027C3.43827 18 2.97027 17.5 3.00027 16.937L3.59427 6.937C3.60913 6.68242 3.72116 6.44327 3.90725 6.26891C4.09333 6.09454 4.33926 5.99829 4.59427 6H6.00027C6.00027 3.625 7.75027 2 10.0003 2ZM14.4703 8H5.53127L5.06227 16H14.9373L14.4683 8H14.4703ZM9.99927 4C8.53127 4 7.99927 5 7.99927 6H11.9993C11.9993 5 11.4993 4 9.99927 4ZM10.9993 10V11C10.9993 11.563 10.5623 12 9.99927 12C9.43727 12 8.99927 11.562 8.99927 11V10H6.99927V11C6.99927 12.5 7.99927 14 9.99927 14C11.9993 14 12.9993 12.5 12.9993 11V10H10.9993Z" fill="#1A1C1F"/>
</g>
<defs>
<clipPath id="clip0_184_102">
<rect width="20" height="20" fill="white"/>
</clipPath>
</defs>
</svg>

<svg xmlns="http://www.w3.org/2000/svg" width="20" height="20" fill="none"><g clip-path="url(#a)"><path fill="#1A1C1F" fill-rule="evenodd" d="M10 2c2.25 0 3.97 1.625 4 4h1.407a.995.995 0 0 1 1 .938l.593 10A1.024 1.024 0 0 1 16 18H4c-.562 0-1.03-.5-1-1.063l.594-10a.995.995 0 0 1 1-.937H6c0-2.375 1.75-4 4-4m4.47 6H5.531l-.469 8h9.875l-.469-8zM10 4C8.53 4 8 5 8 6h4c0-1-.5-2-2-2m1 6v1c0 .563-.438 1-1 1s-1-.438-1-1v-1H7v1c0 1.5 1 3 3 3s3-1.5 3-3v-1z" clip-rule="evenodd"/></g><defs><clipPath id="a"><path fill="#fff" d="M0 0h20v20H0z"/></clipPath></defs></svg>
